svg/sanic.svg

<svg viewBox="0 0 20 20" xmlns="http://www.w3.org/2000/svg">
<rect width="100%" height="100%" fill="#FF0D68"/>
<path d="M16.245 5.81208C16.2006 5.81356 16.1758 5.81438 16.1019 5.81281C15.752 5.81817 15.4547 5.82093 15.2714 5.52362C15.2168 5.43623 15.1809 5.33457 15.1697 5.21955C15.1578 5.09685 15.1742 4.97219 15.2109 4.85382C15.2479 4.73545 15.2923 4.6233 15.36 4.4942C15.5086 4.25551 15.6379 4.1831 15.8867 4.13925C16.0411 4.10129 16.4397 4.08861 16.7247 4.11001C17.201 4.11001 17.5138 4.57133 17.4989 5.04765C17.4841 5.49422 17.1563 5.80684 16.7097 5.80684C16.4024 5.80684 16.3055 5.81007 16.245 5.81208Z" fill="white"/>
<path d="M13.2501 9.35516C13.1372 9.41878 13.036 9.50555 12.9527 9.60743C12.8694 9.70933 12.804 9.82641 12.7627 9.9497C12.7218 10.073 12.7041 10.2025 12.7172 10.3303C12.7298 10.4501 12.7699 10.5565 12.8308 10.6475C13.021 10.9065 13.3505 10.8942 13.8285 10.8763C13.9003 10.8736 13.9755 10.8708 14.0541 10.8688C14.5156 10.8688 14.8729 11.1071 15.1706 11.4197C15.4832 11.7174 15.6917 12.0744 15.6917 12.5359C15.6917 13.0122 15.5875 13.474 15.2898 13.7866C14.9921 14.0843 14.5155 14.2923 14.0541 14.2923C13.6354 14.2923 13.427 14.2811 13.2195 14.2699C13.0139 14.2588 12.8093 14.2478 12.4018 14.2478C11.9943 14.2478 11.7897 14.2405 11.5841 14.2331C11.3768 14.2257 11.1684 14.2183 10.7497 14.2183C10.3422 14.2183 10.1375 14.1998 9.93183 14.1813C9.7243 14.1627 9.51582 14.1439 9.09714 14.1439C8.9924 14.1455 8.88976 14.1433 8.78907 14.1411C8.46624 14.1341 8.1634 14.1275 7.87647 14.2486C7.76356 14.3122 7.66235 14.399 7.57905 14.5009C7.49575 14.6028 7.43038 14.7199 7.38904 14.8432C7.34817 14.9665 7.33041 15.096 7.34359 15.2238C7.4301 15.9038 7.91799 15.901 8.62606 15.8969C8.77402 15.896 8.93158 15.8951 9.09711 15.9004C9.5158 15.9004 9.72427 15.8891 9.9318 15.8779C10.1375 15.8669 10.3422 15.8558 10.7497 15.8558C11.1572 15.8558 11.3618 15.8631 11.5673 15.8705C11.7747 15.8779 11.983 15.8854 12.4017 15.8854C12.8092 15.8854 13.0139 15.8669 13.2195 15.8484C13.427 15.8298 13.6354 15.811 14.054 15.811C14.6495 15.811 15.1854 15.6474 15.6765 15.3646C16.1826 15.0669 16.5995 14.6946 16.8972 14.1885C17.18 13.6973 17.4631 13.1462 17.4631 12.5359C17.4631 11.9558 17.1521 11.4324 16.8745 10.9653L16.8526 10.9284C16.5698 10.4223 16.2573 9.87167 15.7512 9.58887C15.26 9.30604 14.6495 9.29087 14.054 9.29087C13.9697 9.29104 13.892 9.28906 13.8198 9.28722C13.5826 9.28118 13.4054 9.27666 13.2501 9.35516Z" fill="white"/>
<path d="M6.01997 15.7836C6.12697 15.7249 6.22018 15.6441 6.29555 15.5488C6.37091 15.4534 6.42868 15.3435 6.46403 15.2251C6.49914 15.1067 6.51193 14.98 6.49857 14.8522C6.48167 14.7326 6.4433 14.6206 6.38734 14.5202C6.33139 14.4198 6.25781 14.3309 6.17047 14.2582C5.98351 14.1088 5.85251 14.1079 5.40889 14.1049C5.30307 14.1042 5.17944 14.1034 5.03303 14.1004C4.63856 14.1004 4.4303 14.1116 4.22205 14.1228C4.0138 14.134 3.80554 14.1452 3.41107 14.1452C2.9645 14.1452 2.54785 14.5174 2.53301 14.9639C2.5181 15.4403 2.92013 15.8205 3.38161 15.8205C3.79283 15.8205 4.00859 15.8298 4.22335 15.8391C4.43615 15.8483 4.64802 15.8574 5.04809 15.8574C5.14242 15.8536 5.24248 15.8538 5.34249 15.8541C5.6023 15.8547 5.86189 15.8554 6.01997 15.7836Z" fill="white"/>
<path d="M13.6222 4.1572C13.5193 4.16182 13.4267 4.16719 13.3341 4.17256C13.0875 4.18685 12.8414 4.20113 12.4017 4.20113C11.9942 4.20113 11.7897 4.18271 11.5842 4.1642C11.3769 4.14553 11.1686 4.12677 10.7499 4.12677C10.3392 4.12677 10.1174 4.13717 9.89467 4.14761C9.71243 4.15616 9.52963 4.16473 9.24231 4.16765C8.40944 4.17361 8.25 4.54734 8.26961 5.28793C8.28218 5.40774 8.3224 5.51407 8.3833 5.6051C8.4442 5.69612 8.52599 5.77199 8.62185 5.83209C8.72729 5.87913 8.81156 5.87943 8.92062 5.87982C8.96615 5.87999 9.016 5.88017 9.07352 5.88377C9.07917 5.88376 9.0821 5.88367 9.08502 5.88357C9.08804 5.88348 9.09105 5.88338 9.09703 5.88338H10.7496C11.1571 5.88338 11.3617 5.86858 11.5673 5.85372C11.7747 5.83872 11.983 5.82365 12.4017 5.82365C12.8355 5.82365 13.0777 5.82743 13.3089 5.83104L13.3094 5.83105C13.3494 5.83168 13.3892 5.8323 13.4295 5.83289C13.4728 5.83016 13.5186 5.82776 13.5643 5.82537C13.6709 5.81979 13.7774 5.81422 13.8519 5.80441C13.8689 5.79829 13.8868 5.79427 13.9046 5.79026C13.9326 5.78399 13.9604 5.77773 13.9845 5.76355C14.0803 5.70717 14.1636 5.62965 14.2311 5.5381C14.2986 5.44653 14.3501 5.34076 14.3818 5.22708C14.4134 5.11341 14.425 4.99177 14.413 4.86907C14.3979 4.75431 14.3638 4.64679 14.3136 4.55036C14.2635 4.45393 14.1972 4.36853 14.119 4.29869C14.0394 4.22516 13.9483 4.19114 13.8577 4.17461C13.7889 4.16209 13.7218 4.16016 13.6596 4.15837C13.6469 4.158 13.6345 4.15764 13.6222 4.1572Z" fill="white"/>
<path d="M6.26926 4.19656C6.36993 4.18862 6.46714 4.18094 6.61211 4.17958C6.89226 4.19531 6.94703 4.20283 7.09659 4.32189C7.25654 4.48172 7.38895 4.66741 7.42469 4.91584C7.43806 5.04365 7.42527 5.17038 7.39015 5.28879C7.3548 5.40721 7.29703 5.51709 7.22167 5.61247C6.93141 5.86521 6.667 5.84972 6.26059 5.82592C6.12683 5.81809 5.97769 5.80935 5.80718 5.80898C5.34569 5.80898 4.97378 6.09164 4.66117 6.38935C4.36347 6.70198 4.15514 7.07391 4.15514 7.53537C4.15514 7.99684 4.28879 8.44344 4.58653 8.75604C4.89915 9.05375 5.34571 9.26235 5.80719 9.26235C6.21469 9.26235 6.41936 9.23289 6.62495 9.2033C6.83241 9.17344 7.04081 9.14344 7.4595 9.14344C7.86885 9.14344 8.07356 9.13967 8.27827 9.13591C8.48298 9.13214 8.68769 9.12837 9.09704 9.12837C9.51573 9.12837 9.72413 9.16596 9.93159 9.20338C10.1372 9.24046 10.3419 9.27737 10.7494 9.27737C10.817 9.27667 10.8861 9.26948 10.9555 9.26228C11.161 9.24093 11.3685 9.21937 11.5443 9.3656C11.6316 9.43834 11.7055 9.5272 11.7614 9.62762C11.8174 9.72804 11.8555 9.84003 11.8724 9.95956C11.8857 10.0874 11.8729 10.2141 11.8378 10.3325C11.8333 10.3462 11.8289 10.3595 11.8246 10.3726C11.6742 10.8285 11.6392 10.9348 10.7496 10.9445C10.3421 10.9445 10.1374 10.9038 9.93169 10.863C9.72416 10.8218 9.51569 10.7804 9.097 10.7804C8.68765 10.7804 8.48301 10.8139 8.27838 10.8474C8.07374 10.8809 7.8691 10.9144 7.45975 10.9144C7.04107 10.9144 6.83259 10.8806 6.62506 10.8469C6.41939 10.8136 6.21464 10.7804 5.80714 10.7804C5.19688 10.7804 4.66143 10.6614 4.17019 10.3785C3.66404 10.0808 3.18738 9.72357 2.88965 9.21746C2.60683 8.72623 2.51758 8.13075 2.51758 7.53532C2.51758 6.92499 2.62187 6.34471 2.9047 5.85347C3.18757 5.34736 3.67853 5.00475 4.18465 4.72193C4.67588 4.42421 5.19688 4.21591 5.8072 4.21591C6.02413 4.21591 6.14916 4.20604 6.26926 4.19656Z" fill="white"/>
</svg>

<svg xmlns="http://www.w3.org/2000/svg" viewBox="0 0 20 20">
  <rect width="100%" height="100%" fill="#FF0D68"/>
  <path fill="#fff" d="M16.25 5.81h-.15c-.35 0-.65.01-.83-.29a.7.7 0 0 1-.1-.3.93.93 0 0 1 .04-.37c.04-.11.08-.23.15-.36a.66.66 0 0 1 .53-.35c.15-.04.55-.05.83-.03.48 0 .8.46.78.94a.76.76 0 0 1-.79.76h-.46ZM13.25 9.36a1.06 1.06 0 0 0-.53.97.7.7 0 0 0 .11.32c.2.26.52.24 1 .23l.22-.01c.47 0 .82.24 1.12.55.31.3.52.65.52 1.12 0 .47-.1.93-.4 1.25-.3.3-.77.5-1.24.5-.41 0-.62 0-.83-.02l-.82-.02c-.4 0-.61 0-.82-.02l-.83-.01c-.4 0-.61-.02-.82-.04-.2-.02-.41-.04-.83-.04h-.31c-.32 0-.63-.01-.91.1a1.06 1.06 0 0 0-.54.98c.09.68.58.68 1.29.68h.47c.42 0 .62-.01.83-.02l.82-.02.82.01c.2 0 .41.02.83.02.4 0 .61-.02.82-.04.2-.02.42-.04.83-.04.6 0 1.14-.16 1.63-.45.5-.3.92-.67 1.22-1.17.28-.5.56-1.04.56-1.65 0-.58-.3-1.1-.59-1.57l-.02-.04c-.28-.5-.6-1.06-1.1-1.34a3.4 3.4 0 0 0-1.7-.3h-.23c-.24 0-.41-.01-.57.07ZM6.02 15.78c.1-.06.2-.14.28-.23a.97.97 0 0 0 .2-.7.96.96 0 0 0-.33-.6c-.19-.14-.32-.14-.76-.15h-.38l-.8.02c-.22.01-.42.03-.82.03-.45 0-.86.37-.88.81-.01.48.39.86.85.86l.84.02a16.5 16.5 0 0 0 1.12.01c.26 0 .52 0 .68-.07ZM13.62 4.16l-.29.01c-.24.02-.49.03-.93.03-.4 0-.61-.02-.82-.04-.2-.01-.41-.03-.83-.03-.41 0-.63 0-.86.02l-.65.02c-.83 0-.99.38-.97 1.12a.7.7 0 0 0 .11.32c.06.09.15.16.24.22.1.05.2.05.3.05H10.75c.4 0 .61-.01.82-.03.2-.01.41-.03.83-.03l.9.01a107.85 107.85 0 0 0 .26 0l.3-.03.04-.01c.03 0 .06-.01.08-.03.1-.05.18-.13.25-.22a.96.96 0 0 0 .18-.67.96.96 0 0 0-.3-.57.5.5 0 0 0-.25-.13l-.2-.01h-.04Z"/>
  <path fill="#fff" d="m6.27 4.2.34-.02c.28.02.34.02.49.14.16.16.29.35.32.6a.96.96 0 0 1-.2.7c-.29.25-.55.23-.96.2l-.45-.01c-.46 0-.84.28-1.15.58-.3.31-.5.68-.5 1.15 0 .46.13.9.43 1.22.3.3.76.5 1.22.5.4 0 .6-.03.81-.06.21-.03.42-.06.84-.06h.82l.82-.01c.42 0 .62.04.83.07.2.04.41.08.82.08l.2-.02c.21-.02.42-.04.6.1a.93.93 0 0 1 .32.6c.02.13 0 .25-.03.37l-.02.04c-.15.46-.18.56-1.07.57-.4 0-.61-.04-.82-.08a4.35 4.35 0 0 0-1.65-.02 4.47 4.47 0 0 1-1.65 0c-.21-.03-.42-.06-.82-.06a3.44 3.44 0 0 1-2.92-1.56 3.37 3.37 0 0 1-.37-1.68c0-.62.1-1.2.38-1.69.29-.5.78-.85 1.28-1.13.5-.3 1.02-.5 1.63-.5l.46-.02Z"/>
</svg>
